src/assets/icons_linkedin.svg

<svg xmlns="http://www.w3.org/2000/svg" x="0px" y="0px"
width="64" height="64"
viewBox="0 0 172 172"
style=" fill:#undefined;"><g fill="currentColor" fill-rule="nonzero" stroke="none" stroke-width="1" stroke-linecap="butt" stroke-linejoin="miter" stroke-miterlimit="10" stroke-dasharray="" stroke-dashoffset="0" font-family="none" font-weight="none" font-size="none" text-anchor="none" style="mix-blend-mode: normal"><path d="M0,172v-172h172v172z" fill="none"></path><g fill="blank"><path d="M129,21.5h-86c-11.87337,0 -21.5,9.62663 -21.5,21.5v86c0,11.87338 9.62663,21.5 21.5,21.5h86c11.87338,0 21.5,-9.62662 21.5,-21.5v-86c0,-11.87337 -9.62662,-21.5 -21.5,-21.5zM64.5,126.3125h-13.4375v-53.75h13.4375zM64.57794,61.83669c-1.73881,1.77375 -4.00706,2.66331 -6.79669,2.66331c-2.75737,0 -5.01219,-0.91644 -6.76981,-2.74931c-1.75763,-1.83287 -2.63644,-4.08231 -2.63644,-6.74294c0,-2.74125 0.87881,-4.97725 2.63644,-6.71338c1.75762,-1.73881 4.01244,-2.60687 6.76981,-2.60687c2.78963,0 5.05788,0.86806 6.79669,2.60419c1.73881,1.73612 2.60956,3.97481 2.60956,6.71606c0,2.77887 -0.87075,5.05519 -2.60956,6.82894zM126.3125,126.3125h-13.4375v-29.86619c0,-8.32856 -4.79987,-13.13381 -10.75,-13.13381c-2.86756,0 -6.11138,1.7415 -7.96844,3.94794c-1.85706,2.20644 -2.78156,5.00413 -2.78156,8.39844v30.65362h-13.4375v-53.75h13.4375v8.50325h0.20963c3.956,-6.54406 9.70994,-9.79325 17.26988,-9.81475c10.73925,-0.03225 17.458,8.03025 17.458,22.15037z"></path></g></g></svg>

<svg xmlns="http://www.w3.org/2000/svg" width="64" height="64" viewBox="0 0 172 172" fill="#undefined"><g fill="currentColor" stroke-miterlimit="10" font-family="none" font-weight="none" font-size="none" text-anchor="none" style="mix-blend-mode:normal"><path d="M0 172V0h172v172z" fill="none"/><path d="M129 21.5H43c-11.873 0-21.5 9.627-21.5 21.5v86c0 11.873 9.627 21.5 21.5 21.5h86c11.873 0 21.5-9.627 21.5-21.5V43c0-11.873-9.627-21.5-21.5-21.5zM64.5 126.313H51.062v-53.75H64.5zm.078-64.476C62.839 63.61 60.57 64.5 57.78 64.5c-2.757 0-5.012-.916-6.77-2.75-1.757-1.832-2.636-4.082-2.636-6.742 0-2.742.879-4.978 2.636-6.714 1.758-1.738 4.013-2.606 6.77-2.606 2.79 0 5.058.868 6.797 2.604 1.739 1.736 2.61 3.975 2.61 6.716 0 2.779-.871 5.055-2.61 6.829zm61.734 64.475h-13.437V96.447c0-8.328-4.8-13.134-10.75-13.134-2.868 0-6.111 1.742-7.968 3.948-1.857 2.207-2.782 5.005-2.782 8.399v30.654H77.937v-53.75h13.438v8.503h.21c3.956-6.544 9.71-9.793 17.27-9.815 10.739-.032 17.458 8.03 17.458 22.15z" fill="blank"/></g></svg>
